front/img/Group 5214.svg

<svg width="59" height="58" viewBox="0 0 59 58" fill="none" xmlns="http://www.w3.org/2000/svg">
<circle cx="29.8516" cy="29.0039" r="29" fill="white"/>
<path fill-rule="evenodd" clip-rule="evenodd" d="M29.9123 43.2616H29.9063C27.4897 43.2608 25.1151 42.6572 23.0061 41.5121L15.3516 43.5109L17.4 36.0626C16.1364 33.8827 15.4715 31.41 15.4726 28.8767C15.4758 20.9516 21.9533 14.5039 29.9121 14.5039C33.7748 14.5056 37.4003 16.0025 40.1264 18.7194C42.8525 21.4362 44.3531 25.0475 44.3516 28.888C44.3484 36.8113 37.8734 43.2584 29.9123 43.2616ZM23.3584 38.9106L23.7966 39.1696C25.6393 40.258 27.7515 40.834 29.9051 40.8348H29.9099C36.5248 40.8348 41.9086 35.4754 41.9112 28.8879C41.9125 25.6957 40.6653 22.6941 38.3994 20.4359C36.1335 18.1777 33.1202 16.9335 29.9146 16.9324C23.2947 16.9324 17.9108 22.2913 17.9082 28.8782C17.9073 31.1357 18.5418 33.3341 19.7431 35.2362L20.0285 35.6882L18.8161 40.0968L23.3584 38.9106ZM37.1916 32.3055C37.1014 32.1557 36.8609 32.0658 36.5001 31.886C36.1393 31.7062 34.3655 30.8375 34.0347 30.7175C33.7041 30.5977 33.4635 30.5378 33.223 30.8972C32.9825 31.2567 32.2911 32.0658 32.0806 32.3055C31.8701 32.5451 31.6597 32.5752 31.299 32.3954C30.9382 32.2156 29.7757 31.8364 28.3976 30.6128C27.325 29.6604 26.6009 28.4843 26.3905 28.1248C26.18 27.7652 26.368 27.5709 26.5487 27.3918C26.711 27.2308 26.9095 26.9722 27.0899 26.7626C27.2702 26.5529 27.3304 26.403 27.4506 26.1635C27.5709 25.9237 27.5108 25.714 27.4206 25.5343C27.3304 25.3545 26.6088 23.5867 26.3082 22.8675C26.0153 22.1672 25.7179 22.2621 25.4964 22.251C25.2862 22.2405 25.0454 22.2383 24.8049 22.2383C24.5644 22.2383 24.1735 22.3282 23.8428 22.6877C23.5121 23.0473 22.5801 23.9162 22.5801 25.6839C22.5801 27.4517 23.8729 29.1595 24.0533 29.3992C24.2337 29.639 26.5974 33.2665 30.2166 34.8222C31.0774 35.1923 31.7494 35.4132 32.2734 35.5787C33.1377 35.8522 33.9243 35.8136 34.5459 35.7211C35.2391 35.618 36.6805 34.8523 36.9812 34.0134C37.2817 33.1743 37.2817 32.4552 37.1916 32.3055Z" fill="#1B1B1B"/>
</svg>

<svg xmlns="http://www.w3.org/2000/svg" width="59" height="58" fill="none"><circle cx="29.852" cy="29.004" r="29" fill="#fff"/><path fill="#1B1B1B" fill-rule="evenodd" d="M29.912 43.262h-.006c-2.416-.001-4.79-.605-6.9-1.75l-7.654 1.999 2.048-7.448a14.298 14.298 0 0 1-1.927-7.186c.003-7.925 6.48-14.373 14.44-14.373a14.38 14.38 0 0 1 10.213 4.215 14.254 14.254 0 0 1 4.226 10.169c-.004 7.923-6.479 14.37-14.44 14.374Zm-6.554-4.351.439.259a12.026 12.026 0 0 0 6.108 1.665h.005c6.615 0 11.999-5.36 12.001-11.947a11.847 11.847 0 0 0-3.512-8.452 11.947 11.947 0 0 0-8.484-3.504c-6.62 0-12.004 5.36-12.007 11.946 0 2.258.634 4.456 1.835 6.358l.286.452-1.213 4.409 4.542-1.186Zm13.834-6.605c-.09-.15-.331-.24-.692-.42-.36-.18-2.135-1.049-2.465-1.168-.33-.12-.571-.18-.812.18-.24.359-.932 1.168-1.142 1.408-.21.24-.421.27-.782.09-.36-.18-1.523-.56-2.901-1.783-1.073-.953-1.797-2.129-2.008-2.488-.21-.36-.022-.554.159-.733.162-.161.36-.42.54-.63.181-.21.241-.359.362-.599.12-.24.06-.449-.03-.629s-.812-1.947-1.113-2.666c-.293-.7-.59-.606-.812-.617a14.41 14.41 0 0 0-.691-.013c-.24 0-.631.09-.962.45-.33.36-1.263 1.228-1.263 2.996s1.293 3.476 1.473 3.715c.18.24 2.544 3.867 6.164 5.423.86.37 1.532.591 2.056.757.865.273 1.651.235 2.273.142.693-.103 2.135-.869 2.435-1.708.3-.839.3-1.558.21-1.707Z" clip-rule="evenodd"/></svg>
